X:32
T:James McMahon's Favourite
S:Tommy Maguire, Father O'Keeffe
D:Track 15, Paddy in the Smoke, Topic TSCD603, 1997
Z: id:ng-jigs-32 transcribed by Alan Ng alan@alan-ng.nospam (net) 19 Nov. 2005
M:6/8
L:1/8
K:D
|fed edB|A<dB AFE|BAF DEF|ABd edB|fed edB|A<dB AFE|BAF DEF|ABd ~d3:|*
|:faa afa|baf efd|fef edB|ABd e2d|faa afa|baf efd|fef edB|ABd d3:|**
